svg/cancel.svg

<svg xmlns="http://www.w3.org/2000/svg" viewBox="0 0 32 32" enable-background="new 0 0 32 32"><path d="M 16 3 C 8.8321429 3 3 8.8321429 3 16 C 3 23.167857 8.8321429 29 16 29 C 23.167857 29 29 23.167857 29 16 C 29 8.8321429 23.167857 3 16 3 z M 16 5 C 22.086977 5 27 9.9130231 27 16 C 27 22.086977 22.086977 27 16 27 C 9.9130231 27 5 22.086977 5 16 C 5 9.9130231 9.9130231 5 16 5 z M 12.21875 10.78125 L 10.78125 12.21875 L 14.5625 16 L 10.78125 19.78125 L 12.21875 21.21875 L 16 17.4375 L 19.78125 21.21875 L 21.21875 19.78125 L 17.4375 16 L 21.21875 12.21875 L 19.78125 10.78125 L 16 14.5625 L 12.21875 10.78125 z" color="#000" overflow="visible" enable-background="accumulate"/></svg>

<svg xmlns="http://www.w3.org/2000/svg" viewBox="0 0 32 32"><path d="M16 3C8.832 3 3 8.832 3 16s5.832 13 13 13 13-5.832 13-13S23.168 3 16 3zm0 2c6.087 0 11 4.913 11 11s-4.913 11-11 11S5 22.087 5 16 9.913 5 16 5zm-3.78 5.78l-1.44 1.44L14.564 16l-3.782 3.78 1.44 1.44L16 17.437l3.78 3.78 1.44-1.437L17.437 16l3.78-3.78-1.437-1.44L16 14.564l-3.78-3.782z"/></svg>
